icon.svg

<svg width="32" height="32" viewBox="0 0 32 32" fill="none" xmlns="http://www.w3.org/2000/svg">
<path d="M30.2261 22.6783C30.2261 24.1391 29.0435 25.3913 27.5131 25.3913C26.0522 25.3913 24.8 24.2087 24.8 22.6783C24.8 21.2174 25.9827 19.9652 27.5131 19.9652C29.0435 20.0348 30.2261 21.2174 30.2261 22.6783Z" fill="#283276"/>
<path d="M12.5565 12.6609C12.5565 14.1218 11.3738 15.374 9.84341 15.374C8.31298 15.374 7.13037 14.1914 7.13037 12.6609C7.13037 11.2001 8.31298 9.94788 9.84341 9.94788C11.3738 9.94788 12.5565 11.2001 12.5565 12.6609Z" fill="#F29FC5"/>
<path d="M25.2174 19.7565C25.2174 21.2174 24.0348 22.4695 22.5043 22.4695C20.9739 22.4695 19.8608 21.2174 19.8608 19.7565C19.8608 18.2956 21.0434 17.0435 22.5739 17.0435C24.1043 17.0435 25.2174 18.2956 25.2174 19.7565Z" fill="#008ECF"/>
<path d="M18.6783 23.026C18.6783 24.4869 17.4957 25.7391 15.9652 25.7391C14.4348 25.7391 13.2522 24.5565 13.2522 23.026C13.2522 21.5652 14.4348 20.313 15.9652 20.313C17.4957 20.313 18.6783 21.4956 18.6783 23.026Z" fill="#F29FC5"/>
<path d="M18.6783 29.2869C18.6783 30.7478 17.4957 31.9999 15.9652 31.9999C14.5044 31.9999 13.2522 30.8173 13.2522 29.2869C13.2522 27.826 14.4348 26.5739 15.9652 26.5739C17.4957 26.6434 18.6783 27.826 18.6783 29.2869Z" fill="#283276"/>
<path d="M30.2261 9.32169C30.2261 10.7826 29.0435 12.0347 27.5131 12.0347C26.0522 12.0347 24.8 10.8521 24.8 9.32169C24.8 7.86082 25.9827 6.60864 27.5131 6.60864C29.0435 6.67821 30.2261 7.86082 30.2261 9.32169Z" fill="#283276"/>
<path d="M25.2174 12.6609C25.2174 14.1218 24.0348 15.374 22.5043 15.374C20.9739 15.374 19.8608 14.1914 19.8608 12.6609C19.8608 11.2001 21.0434 9.94788 22.5739 9.94788C24.1043 9.94788 25.2174 11.2001 25.2174 12.6609Z" fill="#283276"/>
<path d="M12.2086 19.9652C12.2086 21.4261 11.0259 22.6783 9.49551 22.6783C7.96508 22.6783 6.78247 21.4957 6.78247 19.9652C6.78247 18.5044 7.96508 17.2522 9.49551 17.2522C11.0259 17.2522 12.2086 18.5044 12.2086 19.9652Z" fill="#283276"/>
<path d="M7.0609 8.7653C7.40873 10.2262 6.50438 11.6175 5.04351 11.9653C3.58264 12.3131 2.19134 11.4088 1.84351 9.94791C1.56525 8.48704 2.4696 7.02617 3.8609 6.74791C5.32177 6.40008 6.78264 7.30443 7.0609 8.7653Z" fill="#283276"/>
<path d="M6.85213 14.5392C6.713 15.374 5.94778 15.9305 5.113 15.8609C4.27822 15.7218 3.72169 14.9566 3.79126 14.1218C3.93039 13.287 4.69561 12.7305 5.53039 12.8C6.36517 12.9392 6.92169 13.7044 6.85213 14.5392Z" fill="#E1000F"/>
<path d="M22.2261 25.6C22.0869 26.574 21.1826 27.2 20.2087 27.0609C19.2348 26.9218 18.6087 26.0174 18.7478 25.0435C18.8869 24.0696 19.7913 23.4435 20.7652 23.5827C21.6696 23.7218 22.2956 24.6261 22.2261 25.6Z" fill="#E1000F"/>
<path d="M27.3738 14.4696C27.3043 15.0261 26.7478 15.4435 26.1912 15.374C25.6347 15.3044 25.2173 14.7479 25.2869 14.1914C25.3564 13.6348 25.913 13.2174 26.4695 13.287C27.0956 13.3566 27.4434 13.9131 27.3738 14.4696Z" fill="#E1000F"/>
<path d="M16.939 9.53039C16.7999 10.3652 16.0347 10.9217 15.1999 10.8521C14.3651 10.713 13.8086 9.94778 13.8782 9.113C14.0173 8.27822 14.7825 7.72169 15.6173 7.79126C16.5217 7.93039 17.0782 8.69561 16.939 9.53039Z" fill="#E1000F"/>
<path d="M21.3219 7.51306C21.1827 8.34784 20.4175 8.90436 19.5827 8.83479C18.7479 8.69566 18.1914 7.93045 18.261 7.09566C18.4001 6.26088 19.1653 5.70436 20.0001 5.77392C20.9045 5.91306 21.461 6.67827 21.3219 7.51306Z" fill="#F29FC5"/>
<path d="M11.4437 24.2783C11.3046 25.1131 10.5393 25.6696 9.70455 25.6001C8.86977 25.4609 8.31325 24.6957 8.38281 23.8609C8.52194 23.0261 9.28716 22.4696 10.1219 22.5392C10.9567 22.6783 11.5132 23.5131 11.4437 24.2783Z" fill="#FFE000"/>
<path d="M26.4 17.4608C26.2609 18.2956 25.4956 18.8521 24.6609 18.7825C23.8261 18.6434 23.2695 17.8782 23.3391 17.0434C23.4782 16.2086 24.2435 15.6521 25.0782 15.7217C25.9826 15.8608 26.5391 16.626 26.4 17.4608Z" fill="#FFE000"/>
<path d="M24.6609 24.5566C25.0783 25.2522 24.8696 26.2262 24.1739 26.6435C23.4783 27.0609 22.5044 26.8522 22.087 26.1566C21.6696 25.4609 21.8783 24.487 22.5739 24.0696C23.2696 23.5827 24.2435 23.8609 24.6609 24.5566Z" fill="#283276"/>
<path d="M13.0435 6.60864C12.9044 7.44342 12.1392 7.99994 11.3044 7.93037C10.4696 7.79124 9.9131 7.02603 9.98266 6.19124C10.1218 5.35646 10.887 4.79994 11.7218 4.86951C12.5566 5.00864 13.1131 5.77385 13.0435 6.60864Z" fill="#FFE000"/>
<path d="M18.8174 2.78261C18.8174 4.31304 17.5652 5.56522 16.0348 5.56522C14.5044 5.56522 13.2522 4.31304 13.2522 2.78261C13.2522 1.25217 14.5044 0 16.0348 0C17.5652 0 18.8174 1.25217 18.8174 2.78261Z" fill="#008ECF"/>
<path d="M7.13045 22.6783C7.13045 24.1391 5.94784 25.3913 4.4174 25.3913C2.88697 25.3913 1.77393 24.1391 1.77393 22.6783C1.77393 21.2174 2.95653 19.9652 4.48697 19.9652C6.0174 19.9652 7.13045 21.2174 7.13045 22.6783Z" fill="#008ECF"/>
<path d="M20.3479 15.4435C20.3479 18.0174 18.2609 20.1043 15.687 20.1043C13.1131 20.1043 11.0261 18.0174 11.0261 15.4435C11.0261 12.8695 13.1131 10.7826 15.687 10.7826C18.2609 10.7826 20.3479 12.8695 20.3479 15.4435Z" fill="#008ECF"/>
</svg>

<svg width="32" height="32" fill="none" xmlns="http://www.w3.org/2000/svg"><path d="M30.226 22.678a2.716 2.716 0 01-2.713 2.713 2.716 2.716 0 01-2.713-2.713 2.716 2.716 0 012.713-2.713c1.53.07 2.713 1.252 2.713 2.713z" fill="#283276"/><path d="M12.556 12.66a2.716 2.716 0 01-2.713 2.714c-1.53 0-2.713-1.183-2.713-2.713a2.716 2.716 0 012.713-2.713 2.716 2.716 0 012.713 2.713z" fill="#F29FC5"/><path d="M25.217 19.756a2.716 2.716 0 01-2.713 2.713c-1.53 0-2.643-1.252-2.643-2.713a2.716 2.716 0 012.713-2.712c1.53 0 2.643 1.252 2.643 2.712z" fill="#008ECF"/><path d="M18.678 23.026a2.716 2.716 0 01-2.713 2.713c-1.53 0-2.713-1.183-2.713-2.713a2.716 2.716 0 012.713-2.713c1.53 0 2.713 1.183 2.713 2.713z" fill="#F29FC5"/><path d="M18.678 29.287A2.716 2.716 0 0115.965 32a2.716 2.716 0 01-2.713-2.713 2.716 2.716 0 012.713-2.713c1.53.07 2.713 1.252 2.713 2.713zM30.226 9.322a2.716 2.716 0 01-2.713 2.713A2.716 2.716 0 0124.8 9.322a2.716 2.716 0 012.713-2.713c1.53.07 2.713 1.252 2.713 2.713zM25.217 12.66a2.716 2.716 0 01-2.713 2.714c-1.53 0-2.643-1.183-2.643-2.713a2.716 2.716 0 012.713-2.713c1.53 0 2.643 1.252 2.643 2.713zM12.209 19.965a2.716 2.716 0 01-2.713 2.713c-1.53 0-2.714-1.182-2.714-2.713a2.716 2.716 0 012.714-2.713 2.716 2.716 0 012.713 2.713zM7.06 8.765c.349 1.461-.556 2.852-2.016 3.2-1.461.348-2.853-.556-3.2-2.017-.279-1.461.626-2.922 2.017-3.2 1.46-.348 2.922.556 3.2 2.017z" fill="#283276"/><path d="M6.852 14.54c-.139.834-.904 1.39-1.739 1.32-.835-.138-1.391-.903-1.322-1.738.14-.835.905-1.392 1.74-1.322.834.14 1.39.904 1.321 1.74zM22.226 25.6c-.14.974-1.043 1.6-2.017 1.46-.974-.138-1.6-1.043-1.461-2.016.139-.974 1.043-1.6 2.017-1.461.905.139 1.53 1.043 1.461 2.017zM27.374 14.47c-.07.556-.626.973-1.183.904-.556-.07-.974-.626-.904-1.183.07-.556.626-.974 1.183-.904.626.07.973.626.904 1.183zM16.939 9.53c-.14.835-.904 1.392-1.74 1.322-.834-.139-1.39-.904-1.32-1.739.138-.835.904-1.391 1.738-1.322.905.14 1.461.905 1.322 1.74z" fill="#E1000F"/><path d="M21.322 7.513c-.14.835-.904 1.391-1.74 1.322-.834-.14-1.39-.905-1.321-1.74.14-.834.904-1.39 1.74-1.321.903.14 1.46.904 1.32 1.74z" fill="#F29FC5"/><path d="M11.444 24.278c-.14.835-.905 1.392-1.74 1.322-.834-.14-1.39-.904-1.321-1.74.139-.834.904-1.39 1.739-1.32.835.138 1.391.973 1.322 1.738zM26.4 17.46c-.14.836-.904 1.392-1.74 1.322-.834-.139-1.39-.904-1.32-1.739.138-.834.904-1.39 1.738-1.321.905.139 1.461.904 1.322 1.739z" fill="#FFE000"/><path d="M24.66 24.557c.418.695.21 1.67-.486 2.087-.696.417-1.67.208-2.087-.487-.417-.696-.209-1.67.487-2.087.696-.487 1.67-.21 2.087.487z" fill="#283276"/><path d="M13.043 6.609c-.139.834-.904 1.39-1.739 1.321-.834-.139-1.39-.904-1.321-1.739.139-.835.904-1.391 1.739-1.321.835.139 1.391.904 1.322 1.739z" fill="#FFE000"/><path d="M18.817 2.783a2.79 2.79 0 01-2.782 2.782 2.79 2.79 0 01-2.783-2.782A2.79 2.79 0 0116.035 0a2.79 2.79 0 012.782 2.783zM7.13 22.678a2.716 2.716 0 01-2.713 2.713c-1.53 0-2.643-1.252-2.643-2.713a2.716 2.716 0 012.713-2.713c1.53 0 2.643 1.252 2.643 2.713zM20.348 15.444a4.661 4.661 0 11-9.322-.001 4.661 4.661 0 019.322 0z" fill="#008ECF"/></svg>
